examples/plugin-manifests/warm-lift-test.cube
TITLE "Warm Lift Test"
LUT_3D_SIZE 2
DOMAIN_MIN 0 0 0
DOMAIN_MAX 1 1 1
0.030000 0.020000 0.000000
1.000000 0.050000 0.000000
0.080000 1.000000 0.020000
1.000000 1.000000 0.050000
0.060000 0.040000 1.000000
1.000000 0.080000 1.000000
0.100000 1.000000 1.000000
1.000000 1.000000 1.000000
